svg/fluentui-system-icons/ic_fluent_phone_arrow_right_24_filled.svg

<svg width="24" height="24" viewBox="0 0 24 24" fill="none" xmlns="http://www.w3.org/2000/svg">
<path d="M13.75 2C14.9926 2 16 3.00736 16 4.25L16.0007 10.0189C12.6441 10.2739 10 13.0782 10 16.5C10 17.0166 10.0603 17.5191 10.1741 18.0008L8.75 18C8.33579 18 8 18.3358 8 18.75C8 19.1297 8.28215 19.4435 8.64823 19.4932L8.75 19.5L10.7328 19.5011C11.2663 20.5244 12.0643 21.3879 13.036 22.0011L6.25 22C5.00736 22 4 20.9926 4 19.75V4.25C4 3.00736 5.00736 2 6.25 2H13.75ZM16.5 11C19.5376 11 22 13.4624 22 16.5C22 19.5376 19.5376 22 16.5 22C13.4624 22 11 19.5376 11 16.5C11 13.4624 13.4624 11 16.5 11ZM16.7157 13.5886L16.6464 13.6464L16.5886 13.7157C16.4705 13.8862 16.4705 14.1138 16.5886 14.2843L16.6464 14.3536L18.2917 15.999L13.4937 16L13.4038 16.0081C13.1997 16.0451 13.0388 16.206 13.0018 16.4101L12.9937 16.5L13.0018 16.5899C13.0388 16.794 13.1997 16.9549 13.4038 16.9919L13.4937 17L18.2937 16.999L16.6464 18.6464L16.5886 18.7157C16.4536 18.9106 16.4729 19.18 16.6464 19.3536C16.82 19.5271 17.0894 19.5464 17.2843 19.4114L17.3536 19.3536L19.8832 16.8212L19.9202 16.7711L19.9622 16.691L19.9882 16.6083L19.9981 16.5444V16.4557L19.9883 16.392L19.9624 16.3094L19.9205 16.2293L19.8832 16.1788L17.3536 13.6464L17.2843 13.5886C17.1382 13.4873 16.9501 13.4729 16.7919 13.5452L16.7157 13.5886Z" fill="#212121"/>
</svg>

<svg xmlns="http://www.w3.org/2000/svg" width="24" height="24"><path d="M13.75 2A2.25 2.25 0 0 1 16 4.25v5.769A6.5 6.5 0 0 0 10.175 18H8.75a.75.75 0 0 0-.102 1.493l.102.007 1.983.001a6.53 6.53 0 0 0 2.303 2.5L6.25 22A2.25 2.25 0 0 1 4 19.75V4.25A2.25 2.25 0 0 1 6.25 2h7.5Zm2.75 9a5.5 5.5 0 1 1 0 11 5.5 5.5 0 0 1 0-11Zm.216 2.589-.07.057-.057.07a.5.5 0 0 0 0 .568l.057.07 1.646 1.645-4.798.001-.09.008a.5.5 0 0 0-.402.402l-.008.09.008.09a.5.5 0 0 0 .402.402l.09.008 4.8-.001-1.648 1.647-.057.07a.5.5 0 0 0 .695.695l.07-.057 2.53-2.533.036-.05.042-.08.026-.083.01-.064v-.088l-.01-.064-.026-.083-.041-.08-.038-.05-2.53-2.533-.069-.057a.5.5 0 0 0-.492-.044l-.076.044Z"/></svg>
